svgs/light/house-chimney.svg

<svg xmlns="http://www.w3.org/2000/svg" viewBox="0 0 576 512"><!--! Font Awesome Pro 6.6.0 by @fontawesome - https://fontawesome.com License - https://fontawesome.com/license (Commercial License) Copyright 2024 Fonticons, Inc. --><path d="M277.4 4c6-5.3 15.1-5.3 21.2 0L384 79.4 384 56c0-13.3 10.7-24 24-24l80 0c13.3 0 24 10.7 24 24l0 136.3L570.6 244c6.6 5.8 7.3 16 1.4 22.6s-16 7.3-22.6 1.4L512 235l0 197c0 44.2-35.8 80-80 80l-288 0c-44.2 0-80-35.8-80-80l0-197L26.6 268C20 273.8 9.8 273.2 4 266.6S-1.2 249.8 5.4 244L277.4 4zM480 164.1L480 64l-64 0 0 43.6 64 56.5zM96 206.7L96 432c0 26.5 21.5 48 48 48l64 0 0-160c0-17.7 14.3-32 32-32l96 0c17.7 0 32 14.3 32 32l0 160 64 0c26.5 0 48-21.5 48-48l0-225.3L288 37.3 96 206.7zM336 320l-96 0 0 160 96 0 0-160z"/></svg>

<svg xmlns="http://www.w3.org/2000/svg" viewBox="0 0 576 512"><!--! Font Awesome Pro 6.4.2 by @fontawesome - https://fontawesome.com License - https://fontawesome.com/license (Commercial License) Copyright 2023 Fonticons, Inc. --><path d="M277.4 4c6-5.3 15.1-5.3 21.2 0L384 79.4V56c0-13.3 10.7-24 24-24h80c13.3 0 24 10.7 24 24V192.3L570.6 244c6.6 5.8 7.3 16 1.4 22.6s-16 7.3-22.6 1.4L512 235V432c0 44.2-35.8 80-80 80H144c-44.2 0-80-35.8-80-80V235L26.6 268C20 273.8 9.8 273.2 4 266.6S-1.2 249.8 5.4 244L277.4 4zM480 164.1V64H416v43.6l64 56.5zM96 206.7V432c0 26.5 21.5 48 48 48h64V320c0-17.7 14.3-32 32-32h96c17.7 0 32 14.3 32 32V480h64c26.5 0 48-21.5 48-48V206.7L288 37.3 96 206.7zM336 320H240V480h96V320z"/></svg>
